app/common/icons/cart.svg

<?xml version="1.0" encoding="UTF-8"?>
<svg width="22px" height="20px" viewBox="0 0 22 20" version="1.1" xmlns="http://www.w3.org/2000/svg" xmlns:xlink="http://www.w3.org/1999/xlink">
    <!-- Generator: Sketch 53.2 (72643) - https://sketchapp.com -->
    <title>cart</title>
    <desc>Created with Sketch.</desc>
    <g id="Page-1" stroke="none" stroke-width="1" fill="none" fill-rule="evenodd">
        <g id="1440" transform="translate(-666.000000, -747.000000)">
            <g id="cart" transform="translate(666.000000, 745.000000)">
                <rect id="Rectangle" x="0" y="0" width="24" height="24"></rect>
                <circle id="Oval" fill="#000000" fill-rule="nonzero" cx="19" cy="20" r="2"></circle>
                <circle id="Oval" fill="#000000" fill-rule="nonzero" cx="9" cy="20" r="2"></circle>
                <path d="M21.05,7 L6.05,6.17 L5,2.68 C4.85700608,2.25462906 4.44815236,1.97660853 4,2 L1,2 C0.44771525,2 6.76353751e-17,2.44771525 0,3 C-6.76353751e-17,3.55228475 0.44771525,4 1,4 L3.28,4 L4.21,6.78 L6.71,16.28 C6.87989094,16.7048251 7.31643665,16.9601632 7.77,16.9 L21.13,14.12 C21.630992,14.0543321 22.0042854,13.6252593 22,13.12 L22,8 C22.0006671,7.46666651 21.5826668,7.02666628 21.05,7 Z" id="Path" fill="#0566ff" fill-rule="nonzero"></path>
            </g>
        </g>
    </g>
</svg>

<svg width="22" height="22" xmlns="http://www.w3.org/2000/svg">
<circle fill-rule="nonzero" cx="19" cy="20" r="2"/>
<circle fill-rule="nonzero" cx="9" cy="20" r="2"/>
<path d="M21.05 7l-15-.83L5 2.68A1 1 0 0 0 4 2H1a1 1 0 1 0 0 2h2.28l.93 2.78 2.5 9.5a1 1 0 0 0 1.06.62l13.36-2.78a1 1 0 0 0 .87-1V8a1 1 0 0 0-.95-1z" fill-rule="nonzero"/>
</svg>
